X: 36
T: Sally There's a Bug On Me
M:2/4
L:1/8
S: Viola "Mom" Ruth - Pioneer Western Folk Tunes (1948)
Z:AK/Fiddler's Companion
K:D
A>d f/g/f/e/|dFA>d|cEG>B|AD F2|A>d f/g/f/e/|dFA>d|cABc|d2d2||
K:A
[ce]>f [ce]>f|[ce]>a [c2e2]|bb/a/ ff/g/|ac e2|[ce]>f[ce]>f|e>a [c2e2]|bb/a/ fg|a2a2:|

%%sep 1 1 500
